icons/1_Primary/Public Transport Victoria.svg

<svg xmlns="http://www.w3.org/2000/svg" width="1024" height="1024" fill="none">
   <g clip-path="url(#a)">
      <path fill="#FF837D" d="M512 1024c282.77 0 512-229.23 512-512S794.77 0 512 0 0 229.23 0 512s229.23 512 512 512Z"/>
      <path fill="#fff" d="M815 440.95a27.533 27.533 0 0 1-16.55 25.22L602.11 550.9a22.697 22.697 0 0 1-29.84-11.84 22.702 22.702 0 0 1 11.84-29.84l158.16-68.28-158.15-68.27a22.7 22.7 0 1 1 18-41.68l196.33 84.73A27.526 27.526 0 0 1 815 440.95Zm-423.37 2.68c14.87 15.1 23.06 36 23.06 58.81 0 46.27-37.13 82.51-84.52 82.51H292.4v47.11a22.7 22.7 0 0 1-45.4 0V442a22.81 22.81 0 0 1 22.69-22.7h59.47c25.18-.04 46.78 8.38 62.47 24.33Zm-22.33 58.81c0-20.21-11.16-41.82-42.49-41.82H292.4v83h35.76c23.84-.04 41.15-17.34 41.15-41.18h-.01Zm202.15-39.8a21.699 21.699 0 0 0 14.917-36.8 21.699 21.699 0 0 0-14.917-6.58H439.82a21.688 21.688 0 0 0-21.69 21.69 21.688 21.688 0 0 0 21.69 21.69h43.11v169.41a22.7 22.7 0 0 0 45.4 0V462.64h43.12Z"/>
   </g>
   <defs>
      <clipPath id="a">
         <path fill="#fff" d="M0 0h1024v1024H0z"/>
      </clipPath>
   </defs>
</svg>

<svg width="1024" height="1024" viewBox="0 0 1024 1024" fill="none" xmlns="http://www.w3.org/2000/svg">
<g clip-path="url(#clip0_2_3231)">
<path d="M512 1024C794.77 1024 1024 794.77 1024 512C1024 229.23 794.77 0 512 0C229.23 0 0 229.23 0 512C0 794.77 229.23 1024 512 1024Z" fill="#FF837D"/>
<path d="M815 440.95C814.995 446.308 813.426 451.549 810.487 456.028C807.547 460.508 803.364 464.033 798.45 466.17L602.11 550.9C596.583 553.287 590.334 553.381 584.738 551.16C579.142 548.94 574.657 544.587 572.27 539.06C569.883 533.533 569.79 527.284 572.01 521.688C574.23 516.092 578.583 511.607 584.11 509.22L742.27 440.94L584.12 372.67C578.593 370.283 574.24 365.798 572.02 360.202C569.8 354.606 569.893 348.357 572.28 342.83C574.667 337.303 579.152 332.95 584.748 330.73C590.344 328.509 596.593 328.603 602.12 330.99L798.45 415.72C803.365 417.858 807.55 421.384 810.489 425.866C813.429 430.347 814.997 435.59 815 440.95ZM391.63 443.63C406.5 458.73 414.69 479.63 414.69 502.44C414.69 548.71 377.56 584.95 330.17 584.95H292.4V632.06C292.4 638.08 290.008 643.854 285.751 648.111C281.494 652.368 275.72 654.76 269.7 654.76C263.68 654.76 257.906 652.368 253.649 648.111C249.392 643.854 247 638.08 247 632.06V442C247.029 435.99 249.428 430.235 253.677 425.984C257.926 421.734 263.68 419.332 269.69 419.3H329.16C354.34 419.26 375.94 427.68 391.63 443.63ZM369.3 502.44C369.3 482.23 358.14 460.62 326.81 460.62H292.4V543.62H328.16C352 543.58 369.31 526.28 369.31 502.44H369.3ZM571.45 462.64C577.089 462.469 582.439 460.109 586.367 456.06C590.295 452.011 592.491 446.591 592.491 440.95C592.491 435.309 590.295 429.889 586.367 425.84C582.439 421.791 577.089 419.431 571.45 419.26H439.82C434.067 419.26 428.551 421.545 424.483 425.613C420.415 429.681 418.13 435.197 418.13 440.95C418.13 446.703 420.415 452.219 424.483 456.287C428.551 460.355 434.067 462.64 439.82 462.64H482.93V632.05C482.93 638.07 485.322 643.844 489.579 648.101C493.836 652.358 499.61 654.75 505.63 654.75C511.65 654.75 517.424 652.358 521.681 648.101C525.938 643.844 528.33 638.07 528.33 632.05V462.64H571.45Z" fill="white"/>
</g>
<defs>
<clipPath id="clip0_2_3231">
<rect width="1024" height="1024" fill="white"/>
</clipPath>
</defs>
</svg>
